src/assets/images/logo_white.svg

<svg fill="none" height="65" viewBox="0 0 252 65" width="252" xmlns="http://www.w3.org/2000/svg"><g fill="#fff"><path d="m12.0665 47.9196c-2.40575 0-4.71756-.3383-6.9354-1.0149-2.18025-.7142-3.89061-1.5976-5.1311-2.6501l1.80434-3.1576c1.24049.9773 2.80049 1.7855 4.68002 2.4246 1.87952.6014 3.83424.9021 5.86414.9021 2.7065 0 4.6988-.4135 5.9769-1.2405 1.3156-.8645 1.9735-2.0674 1.9735-3.6086 0-1.0902-.3572-1.936-1.0714-2.5374-.7142-.639-1.6164-1.1089-2.7065-1.4096-1.0901-.3384-2.5373-.6579-4.3417-.9586-2.40578-.4511-4.34169-.9022-5.80771-1.3533-1.46603-.4886-2.72531-1.2968-3.77785-2.4246-1.01494-1.1277-1.52241-2.6877-1.52241-4.68 0-2.4809 1.03374-4.5108 3.10121-6.0896 2.06748-1.5788 4.94315-2.3682 8.62706-2.3682 1.9171 0 3.8342.2631 5.7513.7894 1.9171.4887 3.4959 1.1465 4.7364 1.9735l-1.748 3.214c-2.4433-1.6916-5.3566-2.5374-8.7397-2.5374-2.5562 0-4.49211.4511-5.80777 1.3533-1.27808.9021-1.91712 2.0862-1.91712 3.5523 0 1.1277.35711 2.0298 1.07133 2.7065.75181.6766 1.67278 1.1841 2.7629 1.5224 1.09013.3007 2.59376.6202 4.51086.9586 2.3682.451 4.2665.9021 5.695 1.3532 1.4284.4511 2.6501 1.2217 3.665 2.3118 1.015 1.0901 1.5224 2.5938 1.5224 4.5109 0 2.5937-1.0901 4.6612-3.2703 6.2024-2.1427 1.5036-5.1311 2.2554-8.9654 2.2554z"/><path d="m46.3072 45.8334c-.7518.6766-1.6728 1.2029-2.7629 1.5788-1.0901.3383-2.2366.5074-3.4395.5074-2.7817 0-4.9244-.7518-6.428-2.2554s-2.2554-3.6275-2.2554-6.3716v-27.7981h4.0034v6.4843h8.9653v3.3832h-8.9653v17.7051c0 1.7667.4323 3.12 1.2968 4.0598.8646.9021 2.1239 1.3532 3.7779 1.3532 1.8043 0 3.2703-.5075 4.3981-1.5224z"/><path d="m79.5827 17.9788v29.6589h-3.8342v-5.8641c-1.2029 1.9923-2.8005 3.5147-4.7928 4.5672-1.9547 1.0526-4.1726 1.5788-6.6535 1.5788-2.7817 0-5.3003-.639-7.5557-1.9171s-4.0222-3.0636-5.3003-5.3566c-1.278-2.293-1.9171-4.9056-1.9171-7.8376 0-2.9321.6391-5.5446 1.9171-7.8376 1.2781-2.2931 3.0449-4.0598 5.3003-5.3003 2.2554-1.2781 4.774-1.9171 7.5557-1.9171 2.4058 0 4.5672.5074 6.4843 1.5224 1.9547.9773 3.5523 2.4246 4.7928 4.3417v-5.6386zm-14.9422 26.3885c2.0675 0 3.9282-.4698 5.5822-1.4096 1.6916-.9774 3.0072-2.3494 3.947-4.1162.9773-1.7667 1.466-3.7778 1.466-6.0332 0-2.2555-.4887-4.2666-1.466-6.0333-.9398-1.7668-2.2554-3.12-3.947-4.0598-1.654-.9773-3.5147-1.466-5.5822-1.466-2.1051 0-4.0034.4887-5.695 1.466-1.6539.9398-2.9696 2.293-3.947 4.0598-.9397 1.7667-1.4096 3.7778-1.4096 6.0333 0 2.2554.4699 4.2665 1.4096 6.0332.9774 1.7668 2.2931 3.1388 3.947 4.1162 1.6916.9398 3.5899 1.4096 5.695 1.4096z"/><path d="m99.8666 8.90072c-1.7292 0-3.0448.46988-3.947 1.40968-.8646.9397-1.2969 2.3306-1.2969 4.1725v3.4959h9.1343v3.3832h-9.0215v26.2757h-4.0034v-33.3239c0-2.7066.7706-4.84922 2.3118-6.42802 1.5788-1.5788 3.7967-2.3682 6.6535-2.3682 1.1276 0 2.2176.16916 3.2706.50747 1.052.30072 1.936.75181 2.65 1.35326l-1.353 2.98839c-1.166-.9773-2.632-1.46598-4.3984-1.46598z"/><path d="m118.313 8.90072c-1.729 0-3.045.46988-3.947 1.40968-.865.9397-1.297 2.3306-1.297 4.1725v3.4959h9.135v3.3832h-9.022v26.2757h-4.003v-33.3239c0-2.7066.77-4.84922 2.311-6.42802 1.579-1.5788 3.797-2.3682 6.654-2.3682 1.128 0 2.218.16916 3.27.50747 1.053.30072 1.936.75181 2.65 1.35326l-1.353 2.98839c-1.165-.9773-2.631-1.46598-4.398-1.46598z"/><path d="m135.575 47.9196c-2.405 0-4.717-.3383-6.935-1.0149-2.18-.7142-3.891-1.5976-5.131-2.6501l1.804-3.1576c1.241.9773 2.801 1.7855 4.68 2.4246 1.88.6014 3.835.9021 5.864.9021 2.707 0 4.699-.4135 5.977-1.2405 1.316-.8645 1.974-2.0674 1.974-3.6086 0-1.0902-.357-1.936-1.072-2.5374-.714-.639-1.616-1.1089-2.706-1.4096-1.09-.3384-2.537-.6579-4.342-.9586-2.406-.4511-4.341-.9022-5.807-1.3533-1.466-.4886-2.726-1.2968-3.778-2.4246-1.015-1.1277-1.523-2.6877-1.523-4.68 0-2.4809 1.034-4.5108 3.101-6.0896 2.068-1.5788 4.944-2.3682 8.628-2.3682 1.917 0 3.834.2631 5.751.7894 1.917.4887 3.496 1.1465 4.736 1.9735l-1.748 3.214c-2.443-1.6916-5.356-2.5374-8.739-2.5374-2.557 0-4.493.4511-5.808 1.3533-1.278.9021-1.917 2.0862-1.917 3.5523 0 1.1277.357 2.0298 1.071 2.7065.752.6766 1.673 1.1841 2.763 1.5224 1.09.3007 2.594.6202 4.511.9586 2.368.451 4.266.9021 5.695 1.3532 1.428.4511 2.65 1.2217 3.665 2.3118s1.522 2.5938 1.522 4.5109c0 2.5937-1.09 4.6612-3.27 6.2024-2.143 1.5036-5.131 2.2554-8.966 2.2554z"/><path d="m167.504 47.9196c-2.932 0-5.563-.639-7.894-1.9171-2.293-1.2781-4.097-3.0636-5.413-5.3566-1.315-2.3306-1.973-4.9432-1.973-7.8376 0-2.8945.658-5.4882 1.973-7.7813 1.316-2.293 3.12-4.0785 5.413-5.3566 2.331-1.2781 4.962-1.9171 7.894-1.9171 2.556 0 4.831.5074 6.823 1.5224 2.03.9773 3.627 2.4246 4.793 4.3417l-2.989 2.0299c-.977-1.466-2.217-2.5562-3.721-3.2704-1.504-.7518-3.139-1.1277-4.906-1.1277-2.142 0-4.078.4887-5.807 1.466-1.692.9398-3.026 2.293-4.004 4.0598-.94 1.7667-1.409 3.7778-1.409 6.0333 0 2.293.469 4.3229 1.409 6.0896.978 1.7292 2.312 3.0824 4.004 4.0598 1.729.9398 3.665 1.4096 5.807 1.4096 1.767 0 3.402-.3571 4.906-1.0713s2.744-1.8043 3.721-3.2704l2.989 2.0299c-1.166 1.9171-2.763 3.3832-4.793 4.3981-2.03.9774-4.304 1.466-6.823 1.466z"/><path d="m213.554 17.9788v29.6589h-3.834v-5.8641c-1.203 1.9923-2.801 3.5147-4.793 4.5672-1.955 1.0526-4.173 1.5788-6.654 1.5788-2.781 0-5.3-.639-7.555-1.9171-2.256-1.2781-4.023-3.0636-5.301-5.3566s-1.917-4.9056-1.917-7.8376c0-2.9321.639-5.5446 1.917-7.8376 1.278-2.2931 3.045-4.0598 5.301-5.3003 2.255-1.2781 4.774-1.9171 7.555-1.9171 2.406 0 4.568.5074 6.485 1.5224 1.954.9773 3.552 2.4246 4.792 4.3417v-5.6386zm-14.942 26.3885c2.067 0 3.928-.4698 5.582-1.4096 1.691-.9774 3.007-2.3494 3.947-4.1162.977-1.7667 1.466-3.7778 1.466-6.0332 0-2.2555-.489-4.2666-1.466-6.0333-.94-1.7668-2.256-3.12-3.947-4.0598-1.654-.9773-3.515-1.466-5.582-1.466-2.105 0-4.004.4887-5.695 1.466-1.654.9398-2.97 2.293-3.947 4.0598-.94 1.7667-1.41 3.7778-1.41 6.0333 0 2.2554.47 4.2665 1.41 6.0332.977 1.7668 2.293 3.1388 3.947 4.1162 1.691.9398 3.59 1.4096 5.695 1.4096z"/><path d="m239.815 17.7533c3.721 0 6.672 1.0901 8.852 3.2704 2.218 2.1426 3.327 5.2814 3.327 9.4164v17.1976h-4.003v-16.8029c0-3.0825-.771-5.4319-2.312-7.0483-1.541-1.6163-3.741-2.4245-6.597-2.4245-3.196 0-5.733.9585-7.612 2.8756-1.842 1.8796-2.763 4.4921-2.763 7.8377v15.5624h-4.004v-29.6589h3.834v5.4694c1.091-1.8043 2.594-3.1952 4.511-4.1725 1.955-1.015 4.21-1.5224 6.767-1.5224z"/><path d="m135.006 9.64668c0-5.09579 4.131-9.226758 9.227-9.226758h45.376c5.096 0 9.227 4.130958 9.227 9.226758v45.37632c0 5.0957-4.131 9.2267-9.227 9.2267h-45.376c-5.096 0-9.227-4.1309-9.227-9.2267z"/></g><path d="m135.006 44.407c.283.0119.566.0178.851.0178 2.707 0 4.699-.4135 5.977-1.2405 1.316-.8645 1.974-2.0674 1.974-3.6086 0-1.0902-.357-1.9359-1.072-2.5374-.714-.639-1.616-1.1089-2.706-1.4096-1.09-.3384-2.537-.6579-4.342-.9586-.231-.0434-.459-.0869-.682-.1303v-3.6135c.587.1178 1.228.238 1.923.3607 2.368.451 4.266.9021 5.695 1.3532 1.428.4511 2.65 1.2217 3.665 2.3118 1.015 1.0902 1.522 2.5938 1.522 4.5109 0 2.5937-1.09 4.6612-3.27 6.2024-2.143 1.5036-5.131 2.2554-8.966 2.2554-.19 0-.38-.0021-.569-.0063z" fill="#1468af"/><path d="m198.836 17.7638c-.186-.0063-.374-.0094-.563-.0094-2.781 0-5.3.639-7.555 1.9171-2.256 1.2405-4.023 3.0072-5.301 5.3003-1.278 2.293-1.917 4.9055-1.917 7.8376 0 2.932.639 5.5446 1.917 7.8376s3.045 4.0786 5.301 5.3566c2.255 1.2781 4.774 1.9171 7.555 1.9171.189 0 .377-.003.563-.0091v-3.545c-.074.0012-.149.0018-.224.0018-2.105 0-4.004-.4698-5.695-1.4096-1.654-.9773-2.97-2.3494-3.947-4.1162-.94-1.7667-1.41-3.7778-1.41-6.0332 0-2.2555.47-4.2665 1.41-6.0333.977-1.7667 2.293-3.12 3.947-4.0598 1.691-.9773 3.59-1.466 5.695-1.466.075 0 .15.0007.224.0019z" fill="#1468af"/><path d="m135.006 21.2365v-3.4474c.423-.0231.857-.0347 1.303-.0347 1.917 0 3.834.2631 5.751.7894 1.917.4887 3.496 1.1465 4.736 1.9735l-1.748 3.214c-2.443-1.6916-5.356-2.5374-8.739-2.5374-.454 0-.888.0142-1.303.0426z" fill="#1468af"/><path d="m159.61 46.0036c2.331 1.2781 4.962 1.9171 7.894 1.9171 2.519 0 4.793-.4886 6.823-1.466 2.03-1.0149 3.627-2.481 4.793-4.3981l-2.989-2.0298c-.977 1.466-2.217 2.5561-3.721 3.2703s-3.139 1.0713-4.906 1.0713c-2.142 0-4.078-.4698-5.807-1.4096-1.692-.9773-3.026-2.3306-4.004-4.0598-.94-1.7667-1.409-3.7966-1.409-6.0896 0-2.2555.469-4.2665 1.409-6.0333.978-1.7667 2.312-3.12 4.004-4.0598 1.729-.9773 3.665-1.466 5.807-1.466 1.767 0 3.402.3759 4.906 1.1277 1.504.7142 2.744 1.8044 3.721 3.2704l2.989-2.0299c-1.166-1.9171-2.763-3.3643-4.793-4.3417-1.992-1.0149-4.267-1.5224-6.823-1.5224-2.932 0-5.563.639-7.894 1.9171-2.293 1.2781-4.097 3.0636-5.413 5.3566-1.315 2.2931-1.973 4.8868-1.973 7.7813 0 2.8944.658 5.507 1.973 7.8376 1.316 2.293 3.12 4.0786 5.413 5.3566z" fill="#1468af"/></svg>

<svg width="252" height="65" viewBox="0 0 252 65" fill="none" xmlns="http://www.w3.org/2000/svg">
<path d="M12.0665 47.9196C9.66075 47.9196 7.34894 47.5813 5.1311 46.9047C2.95085 46.1905 1.24049 45.3071 0 44.2546L1.80434 41.097C3.04483 42.0743 4.60483 42.8825 6.48436 43.5216C8.36388 44.123 10.3186 44.4237 12.3485 44.4237C15.055 44.4237 17.0473 44.0102 18.3254 43.1832C19.641 42.3187 20.2989 41.1158 20.2989 39.5746C20.2989 38.4844 19.9417 37.6386 19.2275 37.0372C18.5133 36.3982 17.6111 35.9283 16.521 35.6276C15.4309 35.2892 13.9837 34.9697 12.1793 34.669C9.77352 34.2179 7.83761 33.7668 6.37159 33.3157C4.90556 32.8271 3.64628 32.0189 2.59374 30.8911C1.5788 29.7634 1.07133 28.2034 1.07133 26.2111C1.07133 23.7302 2.10507 21.7003 4.17254 20.1215C6.24002 18.5427 9.11569 17.7533 12.7996 17.7533C14.7167 17.7533 16.6338 18.0164 18.5509 18.5427C20.468 19.0314 22.0468 19.6892 23.2873 20.5162L21.5393 23.7302C19.096 22.0386 16.1827 21.1928 12.7996 21.1928C10.2434 21.1928 8.30749 21.6439 6.99183 22.5461C5.71375 23.4482 5.07471 24.6323 5.07471 26.0984C5.07471 27.2261 5.43182 28.1282 6.14604 28.8049C6.89785 29.4815 7.81882 29.989 8.90894 30.3273C9.99907 30.628 11.5027 30.9475 13.4198 31.2859C15.788 31.7369 17.6863 32.188 19.1148 32.6391C20.5432 33.0902 21.7649 33.8608 22.7798 34.9509C23.7948 36.041 24.3022 37.5447 24.3022 39.4618C24.3022 42.0555 23.2121 44.123 21.0319 45.6642C18.8892 47.1678 15.9008 47.9196 12.0665 47.9196Z" fill="white"/>
<path d="M46.3072 45.8334C45.5554 46.51 44.6344 47.0363 43.5443 47.4122C42.4542 47.7505 41.3077 47.9196 40.1048 47.9196C37.3231 47.9196 35.1804 47.1678 33.6768 45.6642C32.1732 44.1606 31.4214 42.0367 31.4214 39.2926V11.4945H35.4248V17.9788H44.3901V21.362H35.4248V39.0671C35.4248 40.8338 35.8571 42.1871 36.7216 43.1269C37.5862 44.029 38.8455 44.4801 40.4995 44.4801C42.3038 44.4801 43.7698 43.9726 44.8976 42.9577L46.3072 45.8334Z" fill="white"/>
<path d="M79.5827 17.9788V47.6377H75.7485V41.7736C74.5456 43.7659 72.948 45.2883 70.9557 46.3408C69.001 47.3934 66.7831 47.9196 64.3022 47.9196C61.5205 47.9196 59.0019 47.2806 56.7465 46.0025C54.4911 44.7244 52.7243 42.9389 51.4462 40.6459C50.1682 38.3529 49.5291 35.7403 49.5291 32.8083C49.5291 29.8762 50.1682 27.2637 51.4462 24.9707C52.7243 22.6776 54.4911 20.9109 56.7465 19.6704C59.0019 18.3923 61.5205 17.7533 64.3022 17.7533C66.708 17.7533 68.8694 18.2607 70.7865 19.2757C72.7412 20.253 74.3388 21.7003 75.5793 23.6174V17.9788H79.5827ZM64.6405 44.3673C66.708 44.3673 68.5687 43.8975 70.2227 42.9577C71.9143 41.9803 73.2299 40.6083 74.1697 38.8415C75.147 37.0748 75.6357 35.0637 75.6357 32.8083C75.6357 30.5528 75.147 28.5417 74.1697 26.775C73.2299 25.0082 71.9143 23.655 70.2227 22.7152C68.5687 21.7379 66.708 21.2492 64.6405 21.2492C62.5354 21.2492 60.6371 21.7379 58.9455 22.7152C57.2916 23.655 55.9759 25.0082 54.9985 26.775C54.0588 28.5417 53.5889 30.5528 53.5889 32.8083C53.5889 35.0637 54.0588 37.0748 54.9985 38.8415C55.9759 40.6083 57.2916 41.9803 58.9455 42.9577C60.6371 43.8975 62.5354 44.3673 64.6405 44.3673Z" fill="white"/>
<path d="M99.8666 8.90072C98.1374 8.90072 96.8218 9.3706 95.9196 10.3104C95.055 11.2501 94.6227 12.641 94.6227 14.4829V17.9788H103.757V21.362H94.7355V47.6377H90.7321V14.3138C90.7321 11.6072 91.5027 9.46458 93.0439 7.88578C94.6227 6.30698 96.8406 5.51758 99.6974 5.51758C100.825 5.51758 101.915 5.68674 102.968 6.02505C104.02 6.32577 104.904 6.77686 105.618 7.37831L104.265 10.3667C103.099 9.3894 101.633 8.90072 99.8666 8.90072Z" fill="white"/>
<path d="M118.313 8.90072C116.584 8.90072 115.268 9.3706 114.366 10.3104C113.501 11.2501 113.069 12.641 113.069 14.4829V17.9788H122.204V21.362H113.182V47.6377H109.179V14.3138C109.179 11.6072 109.949 9.46458 111.49 7.88578C113.069 6.30698 115.287 5.51758 118.144 5.51758C119.272 5.51758 120.362 5.68674 121.414 6.02505C122.467 6.32577 123.35 6.77686 124.064 7.37831L122.711 10.3667C121.546 9.3894 120.08 8.90072 118.313 8.90072Z" fill="white"/>
<path d="M135.575 47.9196C133.17 47.9196 130.858 47.5813 128.64 46.9047C126.46 46.1905 124.749 45.3071 123.509 44.2546L125.313 41.097C126.554 42.0743 128.114 42.8825 129.993 43.5216C131.873 44.123 133.828 44.4237 135.857 44.4237C138.564 44.4237 140.556 44.0102 141.834 43.1832C143.15 42.3187 143.808 41.1158 143.808 39.5746C143.808 38.4844 143.451 37.6386 142.736 37.0372C142.022 36.3982 141.12 35.9283 140.03 35.6276C138.94 35.2892 137.493 34.9697 135.688 34.669C133.282 34.2179 131.347 33.7668 129.881 33.3157C128.415 32.8271 127.155 32.0189 126.103 30.8911C125.088 29.7634 124.58 28.2034 124.58 26.2111C124.58 23.7302 125.614 21.7003 127.681 20.1215C129.749 18.5427 132.625 17.7533 136.309 17.7533C138.226 17.7533 140.143 18.0164 142.06 18.5427C143.977 19.0314 145.556 19.6892 146.796 20.5162L145.048 23.7302C142.605 22.0386 139.692 21.1928 136.309 21.1928C133.752 21.1928 131.816 21.6439 130.501 22.5461C129.223 23.4482 128.584 24.6323 128.584 26.0984C128.584 27.2261 128.941 28.1282 129.655 28.8049C130.407 29.4815 131.328 29.989 132.418 30.3273C133.508 30.628 135.012 30.9475 136.929 31.2859C139.297 31.7369 141.195 32.188 142.624 32.6391C144.052 33.0902 145.274 33.8608 146.289 34.9509C147.304 36.041 147.811 37.5447 147.811 39.4618C147.811 42.0555 146.721 44.123 144.541 45.6642C142.398 47.1678 139.41 47.9196 135.575 47.9196Z" fill="white"/>
<path d="M167.504 47.9196C164.572 47.9196 161.941 47.2806 159.61 46.0025C157.317 44.7244 155.513 42.9389 154.197 40.6459C152.882 38.3153 152.224 35.7027 152.224 32.8083C152.224 29.9138 152.882 27.3201 154.197 25.027C155.513 22.734 157.317 20.9485 159.61 19.6704C161.941 18.3923 164.572 17.7533 167.504 17.7533C170.06 17.7533 172.335 18.2607 174.327 19.2757C176.357 20.253 177.954 21.7003 179.12 23.6174L176.131 25.6473C175.154 24.1813 173.914 23.0911 172.41 22.3769C170.906 21.6251 169.271 21.2492 167.504 21.2492C165.362 21.2492 163.426 21.7379 161.697 22.7152C160.005 23.655 158.671 25.0082 157.693 26.775C156.753 28.5417 156.284 30.5528 156.284 32.8083C156.284 35.1013 156.753 37.1312 157.693 38.8979C158.671 40.6271 160.005 41.9803 161.697 42.9577C163.426 43.8975 165.362 44.3673 167.504 44.3673C169.271 44.3673 170.906 44.0102 172.41 43.296C173.914 42.5818 175.154 41.4917 176.131 40.0256L179.12 42.0555C177.954 43.9726 176.357 45.4387 174.327 46.4536C172.297 47.431 170.023 47.9196 167.504 47.9196Z" fill="white"/>
<path d="M213.554 17.9788V47.6377H209.72V41.7736C208.517 43.7659 206.919 45.2883 204.927 46.3408C202.972 47.3934 200.754 47.9196 198.273 47.9196C195.492 47.9196 192.973 47.2806 190.718 46.0025C188.462 44.7244 186.695 42.9389 185.417 40.6459C184.139 38.3529 183.5 35.7403 183.5 32.8083C183.5 29.8762 184.139 27.2637 185.417 24.9707C186.695 22.6776 188.462 20.9109 190.718 19.6704C192.973 18.3923 195.492 17.7533 198.273 17.7533C200.679 17.7533 202.841 18.2607 204.758 19.2757C206.712 20.253 208.31 21.7003 209.55 23.6174V17.9788H213.554ZM198.612 44.3673C200.679 44.3673 202.54 43.8975 204.194 42.9577C205.885 41.9803 207.201 40.6083 208.141 38.8415C209.118 37.0748 209.607 35.0637 209.607 32.8083C209.607 30.5528 209.118 28.5417 208.141 26.775C207.201 25.0082 205.885 23.655 204.194 22.7152C202.54 21.7379 200.679 21.2492 198.612 21.2492C196.507 21.2492 194.608 21.7379 192.917 22.7152C191.263 23.655 189.947 25.0082 188.97 26.775C188.03 28.5417 187.56 30.5528 187.56 32.8083C187.56 35.0637 188.03 37.0748 188.97 38.8415C189.947 40.6083 191.263 41.9803 192.917 42.9577C194.608 43.8975 196.507 44.3673 198.612 44.3673Z" fill="white"/>
<path d="M239.815 17.7533C243.536 17.7533 246.487 18.8434 248.667 21.0237C250.885 23.1663 251.994 26.3051 251.994 30.4401V47.6377H247.991V30.8348C247.991 27.7523 247.22 25.4029 245.679 23.7865C244.138 22.1702 241.938 21.362 239.082 21.362C235.886 21.362 233.349 22.3205 231.47 24.2376C229.628 26.1172 228.707 28.7297 228.707 32.0753V47.6377H224.703V17.9788H228.537V23.4482C229.628 21.6439 231.131 20.253 233.048 19.2757C235.003 18.2607 237.258 17.7533 239.815 17.7533Z" fill="white"/>
<path d="M135.006 9.64668C135.006 4.55089 139.137 0.419922 144.233 0.419922H189.609C194.705 0.419922 198.836 4.55088 198.836 9.64668V55.023C198.836 60.1187 194.705 64.2497 189.609 64.2497H144.233C139.137 64.2497 135.006 60.1188 135.006 55.023V9.64668Z" fill="white"/>
<path d="M135.006 44.407C135.289 44.4189 135.572 44.4248 135.857 44.4248C138.564 44.4248 140.556 44.0113 141.834 43.1843C143.15 42.3198 143.808 41.1169 143.808 39.5757C143.808 38.4855 143.451 37.6398 142.736 37.0383C142.022 36.3993 141.12 35.9294 140.03 35.6287C138.94 35.2903 137.493 34.9708 135.688 34.6701C135.457 34.6267 135.229 34.5832 135.006 34.5398V30.9263C135.593 31.0441 136.234 31.1643 136.929 31.287C139.297 31.738 141.195 32.1891 142.624 32.6402C144.052 33.0913 145.274 33.8619 146.289 34.952C147.304 36.0422 147.811 37.5458 147.811 39.4629C147.811 42.0566 146.721 44.1241 144.541 45.6653C142.398 47.1689 139.41 47.9207 135.575 47.9207C135.385 47.9207 135.195 47.9186 135.006 47.9144V44.407Z" fill="#1468AF"/>
<path d="M198.836 17.7638C198.65 17.7575 198.462 17.7544 198.273 17.7544C195.492 17.7544 192.973 18.3934 190.718 19.6715C188.462 20.912 186.695 22.6787 185.417 24.9718C184.139 27.2648 183.5 29.8773 183.5 32.8094C183.5 35.7414 184.139 38.354 185.417 40.647C186.695 42.94 188.462 44.7256 190.718 46.0036C192.973 47.2817 195.492 47.9207 198.273 47.9207C198.462 47.9207 198.65 47.9177 198.836 47.9116V44.3666C198.762 44.3678 198.687 44.3684 198.612 44.3684C196.507 44.3684 194.608 43.8986 192.917 42.9588C191.263 41.9815 189.947 40.6094 188.97 38.8426C188.03 37.0759 187.56 35.0648 187.56 32.8094C187.56 30.5539 188.03 28.5429 188.97 26.7761C189.947 25.0094 191.263 23.6561 192.917 22.7163C194.608 21.739 196.507 21.2503 198.612 21.2503C198.687 21.2503 198.762 21.251 198.836 21.2522V17.7638Z" fill="#1468AF"/>
<path d="M135.006 21.2365V17.7891C135.429 17.766 135.863 17.7544 136.309 17.7544C138.226 17.7544 140.143 18.0175 142.06 18.5438C143.977 19.0325 145.556 19.6903 146.796 20.5173L145.048 23.7313C142.605 22.0397 139.692 21.1939 136.309 21.1939C135.855 21.1939 135.421 21.2081 135.006 21.2365Z" fill="#1468AF"/>
<path d="M159.61 46.0036C161.941 47.2817 164.572 47.9207 167.504 47.9207C170.023 47.9207 172.297 47.4321 174.327 46.4547C176.357 45.4398 177.954 43.9737 179.12 42.0566L176.131 40.0268C175.154 41.4928 173.914 42.5829 172.41 43.2971C170.906 44.0113 169.271 44.3684 167.504 44.3684C165.362 44.3684 163.426 43.8986 161.697 42.9588C160.005 41.9815 158.671 40.6282 157.693 38.899C156.753 37.1323 156.284 35.1024 156.284 32.8094C156.284 30.5539 156.753 28.5429 157.693 26.7761C158.671 25.0094 160.005 23.6561 161.697 22.7163C163.426 21.739 165.362 21.2503 167.504 21.2503C169.271 21.2503 170.906 21.6262 172.41 22.378C173.914 23.0922 175.154 24.1824 176.131 25.6484L179.12 23.6185C177.954 21.7014 176.357 20.2542 174.327 19.2768C172.335 18.2619 170.06 17.7544 167.504 17.7544C164.572 17.7544 161.941 18.3934 159.61 19.6715C157.317 20.9496 155.513 22.7351 154.197 25.0281C152.882 27.3212 152.224 29.9149 152.224 32.8094C152.224 35.7038 152.882 38.3164 154.197 40.647C155.513 42.94 157.317 44.7256 159.61 46.0036Z" fill="#1468AF"/>
</svg>
